!!!OTL: Gueijiang shuiji tan you wan
!!!ARE: Asia, China,ÿGuangxi, Wuzhou
!! II, 527
!!!SCT: C1528B
!!!YEM: Copyright 1995, estate of Helmut Schaffrath.
**kern
*ICvox
*Ivox
!! Mixed meters:  2/4; 3/4; 4/4
*M4/4
*k[f#c#g#]
*A:
{8aa
8bb
8ee
8ee
2ccc#
=1
*M3/4
8aa
16bb
16aa
8ff#
4.ff#}
=2
*M4/4
{2ccc#
4.bb
8ccc#
=3
4bb
8aa
16bb
16aa
8ff#
4.ff#}
=4
{8.eee
16eee
8ccc#
8ccc#
8.eee
16eee
8ccc#
8ccc#
=5
*M3/4
2eee
8ccc#
8ccc#
=6
*M2/4
8bb
8eee
8eee
8ccc#}
=7
{8.ccc#
16eee
8fff#
8eee
=8
*M3/4
8.ccc#
16bb
8bb
8aa
4ff#}
=9
{8ff#
16ccc#
16aa
8ccc#
8aa
8ff#
16aa
16bb
=10
*M4/4
8ccc#
8aa
8ccc#
8aa
8bb
16aa
16bb
8ccc#
8ccc#
=11
*M3/4
8aa
8aa
8.bb
16aa
4aa}
=12
*M2/4
{8bb
16ccc#
16ccc#
8bb
16ccc#
16ccc#
=13
8eee
16ccc#
16bb
8aa
8aa
=14
8eee
16ccc#
16bb
8aa
8aa
=15
8.aa
16bb
4bb}
=16
{4fff#
8eee
8ccc#
=17
8.ccc#
16eee
8fff#
8eee
=18
8.bb
16aa
4ff#}
=19
{8aa
16bb
16bb
8aa
8bb
=20
*M3/4
8aa
8ccc#
8aa
8bb
4ff#
=21
*M2/4
8.ccc#
16aa
8ff#
8aa
=22
8ccc#
8ccc#
8.bb
16aa
4aa}
==
!!!AGN: Haozi, Chuangong haozi, Guo qian diao
!!!AMT: irregular
!!!AIN: vox
!!!EED: Helmut Schaffrath
!!!EEV: 1.0
*-
